!!!COM: John Bull
!!!OPR: Telluris ingens conditor
!!!OTL: [verse 5: Aeterne rerum]
!!!YOR: Musica Britannica, Vol. 14; 2nd rev. ed.;
!!!YOR: John Bull, Keyboard Music 1.
!!!YOR: London
!!!YOR: John Steele and Francis Cameron (editors)
!!!YOR: p.136
!!!YOO: Stainer and Bell
!!!YOY: 1967
**kern	**kern	**kern	**kern	**kern
*freeV	*CF	*conseq	*guida	*CFbackground
*k[b-]	*k[b-]	*k[b-]	*k[b-]	*k[b-]
*d:	*d:	*d:	*d:	*d:
*M4/4	*M4/4	*M4/4	*M4/4	*M4/4
2r	2F	2r	4r	2F
.	.	.	4f	.
=1	=1	=1	=1	=1
2r	2F	4r	4a	2F
.	.	4c	2cc	.
4r	2G	4e	.	2G
4GG	.	[4g	[4b-	.
=2	=2	=2	=2	=2
4D	2A	4g]	4b-]	2A
4F	.	2f	4.a	.
2G	2B-	.	.	2B-
.	.	.	8g	.
.	.	[4e	[4g	.
=3	=3	=3	=3	=3
4D	2A	8e]	4g]	2A
.	.	8d	.	.
4F	.	2d	4f	.
2E	2G	.	2g	2G
.	.	4c#	.	.
=4	=4	=4	=4	=4
4.D	2A	2d	4r	2A
.	.	.	4f	.
8E	.	.	.	.
2F	2A	4r	4a	2A
.	.	4c	[4cc	.
=5	=5	=5	=5	=5
4C	4r	4e	4cc]	2G
4r	4G	2g	2b-	.
4r	4A	.	.	2c
4FF	[4c	[4f	[4a	.
=6	=6	=6	=6	=6
4AA	4c]	4f]	4a]	2c
2C	8B-	2e	4.g	.
.	8A	.	.	.
.	2G	.	.	2G
.	.	.	8a	.
4GG	.	[4d	[4b-	.
=7	=7	=7	=7	=7
2D	2A	8d]	4b-]	2A
.	.	8e	.	.
.	.	2f	4.a	.
2G	2B-	.	.	2G
.	.	.	8g	.
.	.	[4e	[4g	.
=8	=8	=8	=8	=8
2D	2A	8e]	4g]	2A
.	.	8d	.	.
.	.	2d	4f	.
2E-	2G	.	4r	2G
.	.	4c	[4g	.
=9	=9	=9	=9	=9
2D	2A	4r	4g]	2A
.	.	2d	4f	.
2AA	2A	.	2e	2A
.	.	4c	.	.
=10	=10	=10	=10	=10
4BB-	2G	2B-	4r	2G
4GG	.	.	4.g	.
2D	2A	4r	.	2A
.	.	.	8f	.
.	.	[4d	[4f	.
=11	=11	=11	=11	=11
4E-	4G	8d]	4f]	2G
.	.	8c	.	.
4C	4.G	2c	4en	.
2D	.	.	2f	2F
.	8F	.	.	.
.	[4F	4B-	.	.
=12	=12	=12	=12	=12
2C	4F]	2c	4r	2E
.	4E	.	4.g	.
4AA	2F	4r	.	2F
.	.	.	8f	.
4D	.	[4d	[4f	.
=13	=13	=13	=13	=13
4BB-	2G	8d]	4f]	2G
.	.	8c	.	.
4C	.	2c	4e	.
4AA	4A	.	2f	2A
4D	4F	4B-	.	.
=14	=14	=14	=14	=14
2C	2G	2c	4r	2G
.	.	.	4g	.
4r	[2F	4r	[2a	2F
4FF	.	4d	.	.
=15	=15	=15	=15	=15
2.C	4F]	2.e	4a]	2E
.	2E	.	2g	.
.	.	.	.	2F
4D	4F	[4d	8f	.
.	.	.	8e	.
=16	=16	=16	=16	=16
4BB-	4.G	4d]	4d	2G
4GG	.	8c	2d	.
.	8F	8B-	.	.
2AA	2E	2A	.	2E
.	.	.	4c#	.
=17	=17	=17	=17	=17
1DD;	1D;	1A;	1d;	1D;
==	==	==	==	==
*-	*-	*-	*-	*-
!!!COA: Thomas Tallis
!!!CDT: ~1562-1628/3/12/|13
!!!CNT: English
!!!YEP: David Huron and Denis Collins
!!!YEN: Canada
!!!AIN: cemba; clavi; klav; organ
!!!AGN: keyboard
!!!AST: polyphony
!!!RDT: 1995 April 17
!!!YED: 1995 August 31
!!!AFR: cantus firmus canon
!!!AMT: simple quadruple
!!!EEV: 1.0
